X:1
T:Modryb Mair
M:6/8
R:Jig
K:D
A|: d2 d dcd | B2 d A3 | ABc def | g2 e c2 A |
d2 d dcd | B2 d A3 | ABc def |1 gec d2 A :|2 gec ded |
|:c2 d e2 e | c2 d e3 | cde ef^g | a2 e c2 A|
c2 d e2 e | c2 d e3 | aba gfe | 1 d3 ded :|2 dcB ABc||
